X:31
T:The Wonder
Z:Gwen 2022-02-05 d'après Danú
D:Danú: The Road Less Traveled (2003)
M:4/4
R:Hornpipe
K:G
|: GdBG FcAF | (3 GFG BG D2GF | EGAB cBAG | FAd^c ed (3 =cBA |
   GdBG FcAF | (3 GFG BG D2GF | Eedc BAGF |1 AGGF G2 (3 DEF :|2 AGGF G2FG |
|: Add^c dBAG | FAd^c dfed | ^cdef ge^ce | d^cde d2=c2 |
   BcBA ^GBe2 | ABAG FAd2 | (3 efg fe dcBA |1 (3 GFG BA G2FG :|2 (3 GFG BA G2 (3 DEF ||

